public/svg/digitalOcean.svg

<svg width="24" height="24" viewBox="0 0 24 24" fill="none" xmlns="http://www.w3.org/2000/svg">
<g clip-path="url(#clip0)">
<path d="M12 24.0002V19.3923C13.4497 19.398 14.8685 18.9739 16.0772 18.1735C17.2859 17.3732 18.2302 16.2324 18.7908 14.8955C19.3514 13.5586 19.5031 12.0855 19.2267 10.6624C18.9503 9.23936 18.2582 7.93014 17.238 6.90025C16.5209 6.188 15.6567 5.64122 14.706 5.29825C9.522 3.43825 4.644 7.21825 4.644 12.1023H0C0 4.32025 7.59 -1.75175 15.816 0.798252C19.416 1.90825 22.272 4.74625 23.394 8.31025C23.9862 10.1089 24.1426 12.0225 23.8503 13.8935C23.558 15.7644 22.8253 17.5391 21.7126 19.0713C20.5999 20.6036 19.139 21.8495 17.4504 22.7064C15.7617 23.5634 13.8936 24.0068 12 24.0002Z" fill="#0069FF"/>
<path d="M12.0058 19.4045H7.37384V14.8145H12.0058V19.4045ZM7.37384 22.9325H3.81584V19.4045H7.37384V22.9325ZM3.81584 19.4045H0.839844V16.4465H3.82184V19.4045H3.81584Z" fill="#0069FF"/>
</g>
<defs>
<clipPath id="clip0">
<rect width="24" height="24" fill="white"/>
</clipPath>
</defs>
</svg>

<svg xmlns="http://www.w3.org/2000/svg" width="24" height="24" fill="none" xmlns:v="https://vecta.io/nano"><g clip-path="url(#A)" fill="#0069ff"><path d="M12 24v-4.608a7.33 7.33 0 0 0 6.791-4.497 7.33 7.33 0 0 0 .436-4.233c-.276-1.423-.969-2.732-1.989-3.762a6.93 6.93 0 0 0-2.532-1.602c-5.184-1.86-10.062 1.92-10.062 6.804H0C0 4.32 7.59-1.752 15.816.798c3.6 1.11 6.456 3.948 7.578 7.512.592 1.799.749 3.712.456 5.583a11.95 11.95 0 0 1-6.4 8.813A11.95 11.95 0 0 1 12 24z"/><path d="M12.006 19.405H7.374v-4.59h4.632v4.59zm-4.632 3.528H3.816v-3.528h3.558v3.528zm-3.558-3.528H.84v-2.958h2.982v2.958h-.006z"/></g><defs><clipPath id="A"><path fill="#fff" d="M0 0h24v24H0z"/></clipPath></defs></svg>
